X: 27458
T: Molly From Longford
R: reel
M: 4/4
K: Amixolydian
(3Bcd ec d2cd|eA~A2 GEEA|(3Bcd ec d2cd|eAAG GAA2|
(3Bcd ec d2cd|eA~A2 GEEA|(3Bcd ed (3Bcd ed|cABc dcBA||
GE~E2 GEDE|GEED ~B2BA|GE~E2 GEDB|BABG A2BA|
GE~E2 GEDE|GEED ~B2BA|GE~E2 GEDB|BABG ~A2A2||

